X: 37
T: Am Yisrael Chai
C: Slomo Carlebach
M: C
L: 1/8
K: Dm
|: "Dm"AAAA AAAA | "C"GAGE C4 | GGGG GGGG | "Dm"AGFE D4 :|
|: "Dm"dd"Am"cA "Dm"d4 | "Dm"dd"Am"cA "Dm"d4 | "Dm"ffed ffed | "C"ggec "Dm"d4 :|
%%sep 1 1 100
